modules/zondicons/icons/headphones.svg

<?xml version="1.0" encoding="UTF-8" standalone="no"?>
<svg width="20px" height="20px" viewBox="0 0 20 20" version="1.1" xmlns="http://www.w3.org/2000/svg" xmlns:xlink="http://www.w3.org/1999/xlink">
    <!-- Generator: Sketch 3.7.2 (28276) - http://www.bohemiancoding.com/sketch -->
    <title>headphones</title>
    <desc>Created with Sketch.</desc>
    <defs></defs>
    <g id="Page-1" stroke="none" stroke-width="1" fill="none" fill-rule="evenodd">
        <g id="headphones" fill="#000000">
            <path d="M16,17 L16,19 L18,19 C19.1122704,19 20,18.1054196 20,17.0018986 L20,12.9981014 C20,11.8867064 19.1045695,11 18,11 L18,13.5 L18,8 L16,8 L16,17 L16,17 Z M4,17 L4,19 L2,19 C0.8954305,19 0,18.1132936 0,17.0018986 L0,12.9981014 C0,11.8945804 0.887729645,11 2,11 L2,13.5 L2,8 L4,8 L4,17 L4,17 Z M18,8 C18,3.581722 14.418278,0 10,0 C5.581722,0 2,3.581722 2,8 L4,8 C4,4.6862915 6.6862915,2 10,2 C13.3137085,2 16,4.6862915 16,8 L18,8 L18,8 Z M12,10 L15,10 L15,20 L12,20 L12,10 L12,10 Z M5,10 L8,10 L8,20 L5,20 L5,10 L5,10 Z" id="Combined-Shape"></path>
        </g>
    </g>
</svg>

<svg width="20" height="20" viewBox="0 0 20 20" xmlns="http://www.w3.org/2000/svg"><path d="M16 17v2h2c1.112 0 2-.895 2-1.998v-4.004A1.994 1.994 0 0 0 18 11v2.5V8h-2v9zM4 17v2H2c-1.105 0-2-.887-2-1.998v-4.004C0 11.895.888 11 2 11v2.5V8h2v9zm14-9A8 8 0 1 0 2 8h2a6 6 0 1 1 12 0h2zm-6 2h3v10h-3V10zm-7 0h3v10H5V10z" fill="#000" fill-rule="evenodd"/></svg>
